X:612
M:C|
L:1/8
K:G Minor
d|gaba g2 fd|cdfg agfa|gaba g2fd|cdfA G/G/G G:|
c|B/c/d BG BdgB|A/B/c AF Acfc|B/c/d BG BdgB|AG^FA G/G/G GA|

